www/images/arrow.svg

<svg fill="none" height="75" viewBox="0 0 75 75" width="75" xmlns="http://www.w3.org/2000/svg"><path clip-rule="evenodd" d="m45.0086 64.4369 18.7069-22.6543c1.7127-2.0898 1.7127-5.4775 0-7.5561l-18.7069-22.6655c-1.7311-2.08693-4.5283-2.07574-6.2547 0-1.7105 2.0898-1.7105 5.4664 0 7.5561l10.9457 13.249h-35.1117c-2.5359 0-4.5879 2.501-4.5879 5.5951 0 3.094 2.052 5.595 4.5879 5.595h35.1782l-11.0122 13.319c-1.7105 2.0869-1.7105 5.4663 0 7.5533 1.7264 2.0925 4.5236 2.0953 6.2547.0084z" fill="#fff" fill-rule="evenodd"/></svg>

<svg width="75" height="75" viewBox="0 0 75 75" fill="none" xmlns="http://www.w3.org/2000/svg">
<path fill-rule="evenodd" clip-rule="evenodd" d="M45.0086 64.4369L63.7155 41.7826C65.4282 39.6928 65.4282 36.3051 63.7155 34.2265L45.0086 11.561C43.2775 9.47407 40.4803 9.48526 38.7539 11.561C37.0434 13.6508 37.0434 17.0274 38.7539 19.1171L49.6996 32.3661H14.5879C12.052 32.3661 10 34.8671 10 37.9612C10 41.0552 12.052 43.5562 14.5879 43.5562H49.7661L38.7539 56.8752C37.0434 58.9621 37.0434 62.3415 38.7539 64.4285C40.4803 66.521 43.2775 66.5238 45.0086 64.4369Z" fill="white"/>
</svg>
